!!!!SEGMENT: pl-sa--96-a-ii-36--002_hasse-johann-adolf--suavis-sciam-quod-mariam.krn
!!!cenid: 17xx:386
!!!COM: Hasse, Johann Adolf
!!!COM-rismID:
!!!CDT: 1699/03/25-1783/12/16
!!!CNT: German
!!!OTL: Suavis sciam quod Mariam
!!!PDT:
!!!AGN: Sacred
!!!SMS-siglum: PL-SA
!!!SMS-shelfmark: 96/A II 36
!!!SMS-shelfwork: 002 W
!!!SMS-variant:
!!!SMS-altvar:
!!!NIFC-rismSourceID: 1001041278
!!!NIFC-islandoraID:
!!!URL-pdf-islandora:
!!!URL-scan: https://bc.bdsandomierz.pl/dlibra/publication/1374/edition/1342/content @EN{Scan on Cyfrowa Biblioteka Diecezjalna w Sandomierzu} @PL{Skany w portalu Cyfrowa Biblioteka Diecezjalna w Sandomierzu}
!!!ONB-nifc:
!!!AIN: 1 organ 1 viola 2 violn 1 vox
!!!key:
**kern	**kern	**dynam	**kern	**dynam	**kern	**dynam	**kern	**text	**text
*part5	*part4	*part4	*part3	*part3	*part2	*part2	*part1	*part1	*part1
*staff5	*staff4	*	*staff3	*	*staff2	*	*staff1	*staff1	*staff1
*Iorgan	*Iviola	*	*Ivioln	*	*Ivioln	*	*Ivox	*	*
*I"Organo	*I"Alto Viola	*	*I"Violino 2do	*	*I"Violino 1mo	*	*I"Canto Solo	*	*
*I'org	*I'a-vla	*	*I'vl 2	*	*I'vl 1	*	*I'S solo	*	*
*clefF4	*clefC3	*	*clefG2	*	*clefG2	*	*clefC1	*	*
*k[f#c#g#]	*k[f#c#g#]	*	*k[f#c#g#]	*	*k[f#c#g#]	*	*k[f#c#g#]	*	*
*A:	*A:	*	*A:	*	*A:	*	*A:	*	*
*M3/4	*M3/4	*	*M3/4	*	*M3/4	*	*M3/4	*	*
*	*	*	*	*	*	*	*	*verse1	*verse2
=1	=1	=1	=1	=1	=1	=1	=1	=1	=1
!LO:TX:a:t=P:problem=krzyżyki w pierwszym systemie w kolejności f#g#c#; od drugiego systemu f#c#g# (g# na pierwszej linii)	!LO:TX:a:t=P:problem= tytuł nad pięciolinią przed metrum	!	!LO:TX:a:t=P:problem=krzyki przykluczowe w kolejności f#g#c#	!	!LO:TX:a:t=P:problem=krzyki przykluczowe w kolejności f#g#c#	!	!LO:TX:a:t=P:problem=krzyki przykluczowe w kolejności c#g#f#	!	!
!LO:TX:a:t=P:problem= tytuł na pięciolinii przed kluczem	!LO:TX:a:t=Aria 2da	!	!LO:TX:a:t=P:problem=tytuł i nazwa głosu w nagłówku	!	!LO:TX:a:t=P:problem=tytuł i nazwa głosu w nagłówku	!	!LO:TX:a:t=Un poco lente.	!	!
!LO:TX:a:t=Aria 2da	!LO:TX:a:t=P:problem= kolejność krzyżyków c#f#g#	!	!LO:TX:a:t=Aria 2da	!	!LO:TX:a:t=Aria 2da	!	!LO:TX:a:t=Aria. 2da	!	!
!	!	!	!	!	!	!	!LO:TX:a:t=P:problem=tytuł na pięciolinii przed kluczem	!	!
!	!	!	!	!	!	!	!LO:N:vis=00	!	!
8A\L	8c#\L	.	4ee\	.	4ee\	.	0.r	.	.
8A\	8c#\	.	.	.	.	.	.	.	.
8A\	8c#\	.	16dd\LL	.	16dd\LL	.	.	.	.
.	.	.	16cc#\	.	16cc#\	.	.	.	.
8A\	8c#\	.	16b\	.	16b\	.	.	.	.
.	.	.	16a\JJ	.	16a\JJ	.	.	.	.
.	.	.	8qqcc#/	.	8qqcc#/	.	.	.	.
8A\	8d\	.	8b/L	.	8b/L	.	.	.	.
.	.	.	.	.	8qqa/	.	.	.	.
8A\J	8B\J	.	8a/J	.	8g#/J	.	.	.	.
=2	=2	=2	=2	=2	=2	=2	=2	=2	=2
.	.	.	8qqg#/	.	.	.	.	.	.
8A\L	8c#\L	.	4a/	.	4a/	.	.	.	.
8A\	8c#\	.	.	.	.	.	.	.	.
8A\	8c#\	.	4e/	.	4.e/	.	.	.	.
8A\	8c#\J	.	.	.	.	.	.	.	.
8A\	8c#/L	.	8d/L	.	.	.	.	.	.
8A\J	16B/L	.	8c#/J	.	16d/LL	.	.	.	.
.	16A/JJ	.	.	.	16c#/JJ	.	.	.	.
=3	=3	=3	=3	=3	=3	=3	=3	=3	=3
8A\L	8d\L	.	8f#/L	.	8f#/L	.	.	.	.
8A\	8.d\J	.	8.f#/J	.	8.f#/J	.	.	.	.
8A\	.	.	.	.	.	.	.	.	.
.	16d\LL	.	16f#/LL	.	16f#/LL	.	.	.	.
8A\	16e\	.	16gn/	.	16gn/	.	.	.	.
.	16d\JJ	.	16f#/JJ	.	16f#/JJ	.	.	.	.
!	!	!	!LO:TX:a:t=P:problem=mixed beam	!	!LO:TX:a:t=P:problem=mixed beam	!	!	!	!
8A\	8f#\L	.	8dd\L	.	8dd\L	.	.	.	.
8A\J	8d\J	.	8f#/J	.	8f#/J	.	.	.	.
=4	=4	=4	=4	=4	=4	=4	=4	=4	=4
8A\L	8d\L	.	4f#/	.	4f#/	.	.	.	.
8A\	8d\	.	.	.	.	.	.	.	.
8A\	8c#\	.	4e/	.	4e/	.	.	.	.
8A\	8c#\	.	.	.	.	.	.	.	.
8A\	8c#\	.	16.e/LL	.	16e/LL	.	.	.	.
.	.	.	.	.	32a/K	.	.	.	.
.	.	.	32a/K	.	16.b/	.	.	.	.
8A\J	8c#\J	.	16.b/	.	.	.	.	.	.
.	.	.	.	.	16cc#/JJ	.	.	.	.
.	.	.	32cc#/JJk	.	.	.	.	.	.
=5	=5	=5	=5	=5	=5	=5	=5	=5	=5
!	!LO:TX:a:t=P:problem=mixed beam	!	!	!	!	!	!LO:N:vis=00	!	!
8A\L	8B/L	.	8dd\L	.	8dd\L	.	0.r	.	.
8A\	8B/	.	8dd\J	.	[>8dd\J	.	.	.	.
16A\L	8b\	.	16.dd\LL	.	16.dd\LL]	.	.	.	.
16A\J	.	.	.	.	.	.	.	.	.
.	.	.	32dd\K	.	32dd\K	.	.	.	.
8A\	8b\J	.	16.ee\	.	16.ee\	.	.	.	.
.	.	.	32dd\JJk	.	32dd\JJk	.	.	.	.
8G#\	8e\L	.	8bb\L	.	8bb\L	.	.	.	.
8G#\J	8e\J	.	8dd\J	.	8dd\J	.	.	.	.
=6	=6	=6	=6	=6	=6	=6	=6	=6	=6
8A\L	8e\L	.	8dd\L	.	8dd\L	.	.	.	.
8A\	8e\	.	8cc#\J	.	8cc#\J	.	.	.	.
8A\	8e\	.	16.cc#\LL	.	16.cc#\LL	.	.	.	.
.	.	.	32cc#\K	.	32cc#\K	.	.	.	.
8A\	8a\	.	16.dd\	.	16.dd\	.	.	.	.
.	.	.	32cc#\JJk	.	32cc#\JJk	.	.	.	.
!	!	!	!LO:LB:g=original	!	!	!	!	!	!
8A\	8cc#\	.	8aa\L	.	8aa\L	.	.	.	.
8A\J	8e\J	.	8cc#\J	.	8cc#\J	.	.	.	.
=7	=7	=7	=7	=7	=7	=7	=7	=7	=7
8D/L	8f#\L	.	8cc#\L	.	8cc#\L	.	.	.	.
8D/	8f#\	.	8b\J	.	8b\J	.	.	.	.
!	!	!	!	!	!LO:LB:g=original	!	!	!	!
8D/	8f#\	.	16.b\LL	.	16.b\LL	.	.	.	.
.	.	.	32b\K	.	32b\K	.	.	.	.
8D/	8f#\	.	16.cc#\	.	16.cc#\	.	.	.	.
.	.	.	32b\JJk	.	32b\JJk	.	.	.	.
!LO:TX:a:t=P:problem=# below	!	!	!LO:TX:a:t=P:problem=mixed beam	!	!LO:TX:t=P:problem=mixed beam	!	!	!	!
8D#/	8f#\	.	8ff#\L	.	8ff#\L	.	.	.	.
8D#/J	8f#\J	.	8f#/J	.	8f#/J	.	.	.	.
!LO:LB:g=original	!LO:LB:g=original	!	!	!	!	!	!	!	!
=8	=8	=8	=8	=8	=8	=8	=8	=8	=8
!	!LO:TX:a:t=P:problem=mixed beam	!	!	!	!	!	!	!	!
8E\L	8B/L	.	8a/	.	8a/	.	.	.	.
8E\	8B/	.	4g#/	.	4g#/	.	.	.	.
8E\	8B/	.	.	.	.	.	.	.	.
8E\	8a\	.	8ff#\L	.	8ff#\L	.	.	.	.
8E\	8g#\	.	8ee\	.	8ee\	.	.	.	.
8E\J	8f#\J	.	8dd#\J	.	8dd#\J	.	.	.	.
=9	=9	=9	=9	=9	=9	=9	=9	=9	=9
.	8qqg#/	.	.	.	.	.	.	.	.
!	!	!	!	!	!	!	!LO:N:vis=00	!	!
8E\L	4.e\	.	32ee\KLL	.	32ee\KLL	.	0.r	.	.
.	.	.	16.a\JJ	.	16.a\JJ	.	.	.	.
.	.	.	8qqa/	.	8qqa/	.	.	.	.
8E\	.	.	4g#/	.	4g#/	.	.	.	.
8E\	.	.	.	.	.	.	.	.	.
8E\	8a\L	.	8ff#\L	.	8ff#\L	.	.	.	.
8E\	8g#\	.	8ee\	.	8ee\	.	.	.	.
8E\J	8f#\J	.	8dd#X\J	.	8dd#\J	.	.	.	.
=10	=10	=10	=10	=10	=10	=10	=10	=10	=10
.	8qqf#/	.	.	.	.	.	.	.	.
8E\L	4.e\	.	32ee\KLL	.	32ee\KLL	.	.	.	.
.	.	.	16.a\JJ	.	16.a\JJ	.	.	.	.
.	.	.	8qqa/	.	8qqa/	.	.	.	.
8E\	.	.	4g#/	.	4g#/	.	.	.	.
8Dn\	.	.	.	.	.	.	.	.	.
8D\J	8g#\L	.	8bb\L	.	8gg#\L	.	.	.	.
8C#/L	8a\	.	8ee\	.	8ee\	.	.	.	.
8BB/J	8b\J	.	8ddnX\J	.	8ddnX\J	.	.	.	.
=11	=11	=11	=11	=11	=11	=11	=11	=11	=11
8AA/L	8e\L	.	8cc#\L	.	8cc#\L	.	.	.	.
8D/J	8f#\J	.	16b\L	.	16.b\L	.	.	.	.
.	.	.	16cc#\JJ	.	.	.	.	.	.
.	.	.	.	.	32cc#\JJk	.	.	.	.
.	8qqc#/	.	8qqa/	.	8qqa/	.	.	.	.
8E\L	2B/	.	2g#t>/	.	2g#/	.	.	.	.
8E\	.	.	.	.	.	.	.	.	.
8E\	.	.	.	.	.	.	.	.	.
8E\J	.	.	.	.	.	.	.	.	.
=12	=12	=12	=12	=12	=12	=12	=12	=12	=12
!	!LO:TX:a:t=P:problem=mixed beam	!	!	!	!	!	!	!	!
8A\L	8A/L	.	8a\L	.	8a\L	.	.	.	.
8A\	8a\	.	8cc#\J	.	8ee\J	.	.	.	.
!	!	!	!	!	!LO:N:vis=8	!	!	!	!
8A\	8a\	.	16r	.	16r	.	.	.	.
.	.	.	16cc#\LL	.	16ee\LL	.	.	.	.
8A\	8a\	.	16.dd\	.	16.ff#\	.	.	.	.
.	.	.	32cc#\JJk	.	32ee\JJk	.	.	.	.
8A\	8a\	.	8ee\L	.	8aa\L	.	.	.	.
8A\J	8a\J	.	8cc#\J	.	8ee\J	.	.	.	.
!	!	!	!LO:LB:g=original	!	!	!	!	!	!
=13	=13	=13	=13	=13	=13	=13	=13	=13	=13
!	!	!	!	!	!	!	!LO:N:vis=00	!	!
8E\L	8e\L	.	8r	.	8r	.	0.r	.	.
8E\	8e\	.	8b\	.	8dd\	.	.	.	.
8E\	8e\	.	16r	.	16r	.	.	.	.
.	.	.	16b\LL	.	16dd\LL	.	.	.	.
8E\	8e\	.	16.cc#\	.	16.ee\	.	.	.	.
.	.	.	32b\JJk	.	32dd\JJk	.	.	.	.
!	!	!	!	!	!LO:LB:g=original	!	!	!	!
8E\	8e\	.	8gg#\L	.	8bb\L	.	.	.	.
8E\J	8e\J	.	8b\J	.	8dd\J	.	.	.	.
=14	=14	=14	=14	=14	=14	=14	=14	=14	=14
8AA/L	8e\L	.	8a/L	.	8cc#\L	.	.	.	.
8D/	8f#\J	.	8b/J	.	16.dd\L	.	.	.	.
.	.	.	.	.	32cc#\JJk	.	.	.	.
8E/	4e\	.	4a/	.	4cc#\	.	.	.	.
8E/	.	.	.	.	.	.	.	.	.
8EE/	4d\	.	4g#/	.	4bT>\	.	.	.	.
8EE/J	.	.	.	.	.	.	.	.	.
=15	=15	=15	=15	=15	=15	=15	=15	=15	=15
!	!	!	!	!	!	!LO:DY:a	!	!	!
!	!	!	!	!	!	!LO:HP:a:i:t=pi:	!	!	!
8AA/L	8c#\L	.	8a/L	.	8a\L	p	.	.	.
8AA/	8a\	.	8cc#/J	.	8ee\J	.	.	.	.
8AA/	8a\	.	16r	.	16r	.	.	.	.
.	.	.	16cc#\LL	.	16ee\LL	.	.	.	.
8AA/	8a\	.	16.dd\	.	16.ff#\	.	.	.	.
.	.	.	32cc#\JJk	.	32ee\JJk	.	.	.	.
8AA/	8a\	.	8ee\L	.	8aa\L	.	.	.	.
8AA/J	8a\J	.	8cc#\J	.	8ee\J	.	.	.	.
!	!LO:LB:g=original	!	!	!	!	!	!	!	!
=16	=16	=16	=16	=16	=16	=16	=16	=16	=16
8E\L	8e\L	.	8r	.	8r	.	.	.	.
8E\	8e\	.	8b\	.	8dd\	.	.	.	.
8E\	8e\	.	16r	.	16r	.	.	.	.
.	.	.	16b\LL	.	16dd\LL	.	.	.	.
8E\	8e\	.	16.cc#\	.	16.ee\	.	.	.	.
.	.	.	32b\JJk	.	32dd\JJk	.	.	.	.
8E\	8e\	.	8dd\L	.	8bb\L	.	.	.	.
8E\J	8e\J	.	8b\J	.	8dd\J	.	.	.	.
!LO:LB:g=original	!	!	!	!	!	!	!	!	!
=17	=17	=17	=17	=17	=17	=17	=17	=17	=17
!	!	!	!	!	!	!LO:DY:a	!	!	!
!	!	!	!	!	!	!LO:HP:a:i:t=fo:	!LO:N:vis=0	!	!
8A\L	8e\L	.	8a/L	.	8cc#\L	f	1.r	.	.
8D\J	8d\J	.	16b/L	.	16.dd\L	.	.	.	.
.	.	.	16g#/JJ	.	.	.	.	.	.
.	.	.	.	.	32b\JJk	.	.	.	.
4E\	4c#\	.	4f#/	.	4a/	.	.	.	.
4EE/	4d\	.	4g#/	.	4b/	.	.	.	.
=18	=18	=18	=18	=18	=18	=18	=18	=18	=18
2AA/	2c#\	.	4a/	.	4a/	.	.	.	.
.	.	.	2A/	.	2A/	.	.	.	.
4r	4r	.	.	.	.	.	.	.	.
!LO:TX:a:t=P:problem=nietypowy znak graficzny w miejscu kreski taktowej; prawdopodobnie segno	!LO:TX:a:t=P:problem=nietypowy znak graficzny w miejscu kreski taktowej; prawdopodobnie segno	!	!LO:TX:a:t=P:problem=nietypowy znak graficzny w miejscu kreski taktowej; prawdopodobnie segno	!	!LO:TX:a:t=P:problem=nietypowy znak graficzny w miejscu kreski taktowej; prawdopodobnie segno	!	!LO:TX:a:t=P:problem=nietypowy znak graficzny w miejscu kreski taktowej; prawdopodobnie segno	!	!
=19	=19	=19	=19	=19	=19	=19	=19	=19	=19
!	!	!	!	!LO:DY:a	!	!LO:DY:a	!	!	!
!	!	!	!	!LO:HP:a:i:t=Piano	!	!LO:HP:a:i:t=piano	!	!	!
8AA/L	8c#\L	.	8e/L	p	8a/L	p	4ee\	Qvam-	Cio
8AA/	8c#\	.	8e/	.	8a/	.	.	.	.
8AA/	8c#\	.	8e/	.	8a/	.	16dd\LL	.	he
.	.	.	.	.	.	.	(>16cc#\JJ	.	.
!	!	!	!	!	!	!	!LO:TX:a:t=P:problem=dywiz jako przedłużenie sylaby	!	!
8AA/	8c#\	.	8e/	.	8a/	.	16b\LL)	.	ne
.	.	.	.	.	.	.	16a\JJ	.	.
.	.	.	.	.	.	.	8qqcc#/	.	.
8AA/	8d\	.	8f#/	.	8b/	.	8b\	-Vis,	pui
!	!	!	!	!	!	!	!LO:TX:a:t=P:problem=cezury zapisywane na pierwszej linii	!	!
.	.	.	.	.	.	.	(>8qqa/	.	.
8AA/J	8B\J	.	8d/J	.	8g#/J	.	8g#,\)	.	pro-
!	!	!	!LO:LB:g=original	!	!	!	!	!	!
=20	=20	=20	=20	=20	=20	=20	=20	=20	=20
8AA/L	8c#/L	.	8e/L	.	8a/L	.	4a\	sciam	-fon-
8AA/	8c#/	.	8e/	.	8a/	.	.	.	.
8AA/	8c#/	.	8e/	.	8a/	.	2e/	.	-do
8AA/	8c#/	.	8e/	.	8a/	.	.	.	.
8AA/	8c#/	.	8e/	.	8a/	.	.	.	.
8AA/J	8c#/J	.	8e/J	.	8a/J	.	.	.	.
!	!	!	!	!	!LO:LB:g=original	!	!	!	!
=21	=21	=21	=21	=21	=21	=21	=21	=21	=21
!	!	!	!	!	!	!	!LO:TX:a:t=P:problem=dywiz jako przedłużenie sylaby	!	!
8AA/L	8d\L	.	8f#/L	.	8a/L	.	4f#/	qvod-	chui-
8AA/	8d\	.	8f#/	.	8a/	.	.	.	.
8AA/	8d\	.	8f#/	.	8a/	.	8f#/	.	-so
8AA/	8d\	.	8f#/	.	8a/	.	8f#/	.	del
8AA/	8d\	.	8f#/	.	8a/	.	(>8dd\	-Ma-	sen-
8AA/J	8d\J	.	8f#/J	.	8a/J	.	8f#/)	.	-na
=22	=22	=22	=22	=22	=22	=22	=22	=22	=22
8AA/L	8d\L	.	8f#/L	.	8a/L	.	4f#/	-ri-	scon-
8AA/	8d\	.	8f#/	.	8a/	.	.	.	.
8AA/	8c#\	.	8e/	.	8a/	.	4e/	-am	-do
8AA/	8c#\	.	8e/	.	8a/J	.	.	.	.
8AA/	8c#\	.	8e/	.	16r	.	4r	.	.
.	.	.	.	.	16a\LL	.	.	.	.
8AA/J	8c#\J	.	8e/J	.	16b\	.	.	.	.
.	.	.	.	.	16cc#\JJ	.	.	.	.
!	!	!	!	!	!	!	!LO:LB:g=original	!	!
=23	=23	=23	=23	=23	=23	=23	=23	=23	=23
8AA/L	8B/L	.	8f#/L	.	8dd\L	.	4dd\	Ne-	cio-
8AA/	8B/	.	8f#/	.	8dd\J	.	.	.	.
8AA/	8B/	.	8e/	.	16r	.	[>8dd\	.	-hil
.	.	.	.	.	16dd\LL	.	.	.	.
8AA/	8B/	.	8e/	.	16.ff#\	.	8dd\]	-mo	mio
.	.	.	.	.	32dd\JJk	.	.	.	.
*	*	*	*	*	*	*	*	*ij	*
8GG#/	8B/	.	8e/	.	8bb\L	.	8dd\	Ne-	la-
8GG#/J	8B/J	.	8e/J	.	8dd\J	.	8dd\	-mo	-bro
*	*	*	*	*	*	*	*	*Xij	*
=24	=24	=24	=24	=24	=24	=24	=24	=24	=24
!	!LO:LB:g=original	!	!	!	!	!	!	!	!
!LO:TX:a:t=P:problem=mixed beam	!	!	!	!	!LO:TX:a:t=P:problem=mixed beam	!	!	!	!
8AA/L	8A/L	.	8e/L	.	8dd\L	.	4dd\	dig-	ta-
8AA/	8A/	.	8e/	.	8e/J	.	.	.	.
8AA/	8A/	.	8e/	.	16r	.	4cc#\	-ne	-ce
.	.	.	.	.	16cc#\LL	.	.	.	.
8AA/	8A/	.	8a/	.	16.ee\	.	.	.	.
.	.	.	.	.	32cc#\JJk	.	.	.	.
8A\	8A/	.	8cc#/	.	8aa\L	.	8r	.	.
8A\J	8A/J	.	8a/J	.	8cc#\J	.	8cc#\	prae-	allo-
=25	=25	=25	=25	=25	=25	=25	=25	=25	=25
!	!	!	!	!	!LO:TX:a:t=P:problem=mixed beam	!	!	!	!
8D/L	8d\L	.	8a/L	.	8ff#\L	.	4.ff#\	-di-	-ra
8D/	8d\	.	8a/	.	8f#/J	.	.	.	.
8D/	8d\	.	8a/	.	8r	.	.	.	.
8D/	8d\	.	8a/	.	8ff#\L	.	8ff#\	.	ei
8D/	8d\	.	8b/	.	8dd\	.	8dd\	-cet	ti
!	!LO:TX:a:t=P:problem= krzyżyk nad nutą; pomiędzy piątą a szóstą ósemką	!	!	!	!	!	!	!	!
8D#X/J	8d#X\J	.	8a/J	.	8cc#\J	.	8cc#\	Ne-	di-
!LO:LB:g=original	!	!	!	!	!	!	!	!	!
=26	=26	=26	=26	=26	=26	=26	=26	=26	=26
8E\L	8e\L	.	8a/L	.	8cc#\L	.	4cc#\	.	.
8E\	8e\	.	8a/	.	8cc#\	.	.	.	.
8E\	8e\	.	8g#/	.	8b\J	.	4b\	-mo	-ra
8E\	8e\	.	8g#/	.	4ee\	.	.	.	.
8E\	8e\	.	8g#/	.	.	.	4r	.	.
8F#\J	8f#\J	.	8a/J	.	8dd#\	.	.	.	.
=27	=27	=27	=27	=27	=27	=27	=27	=27	=27
8G#\L	8g#\L	.	8b\L	.	4ee\	.	4ee\	Ne-	cio-
8G#\	8g#\	.	8b\	.	.	.	.	.	.
8G#\	8g#\	.	8b\	.	16r	.	[>8ee\	-mo	-hil
.	.	.	.	.	16ee\LL	.	.	.	.
8G#\	8g#\	.	8b\	.	16.gg#\	.	8ee\]	.	mio
.	.	.	.	.	32ee\JJk	.	.	.	.
8G#\	8g#\	.	8b\	.	8ccc#\L	.	8ee\	dig-	la-
8G#\J	8g#\J	.	8b\J	.	8ee\J	.	8ee\	-ne	-bro
!	!	!	!	!	!LO:LB:g=original	!	!	!	!
=28	=28	=28	=28	=28	=28	=28	=28	=28	=28
8F#\L	8f#\L	.	8a/L	.	8ee\L	.	4ee\	ne-	ta-
8F#\	8f#\	.	8a/	.	8ee\	.	.	.	.
8F#\	8f#\	.	8a/	.	8dd#\	.	4dd#X\	-mo	-ce
8F#\	8f#\	.	8a/	.	8dd#\	.	.	.	.
8F#\	8f#\	.	8a/	.	8dd#\	.	8r	.	.
8F#\J	8f#\J	.	8a/J	.	8dd#\J	.	8ff#\	prae-	al-
!	!	!	!LO:LB:g=original	!	!	!	!	!	!
=29	=29	=29	=29	=29	=29	=29	=29	=29	=29
!	!	!	!	!	!LO:SIC:s=8dd#	!	!LO:LB:g=original	!	!
8BB/L	8f#\L	.	8a/L	.	8dd\L	.	4.ff#\	.	-lo-
!	!	!	!	!	!LO:SIC:s=8dd#	!	!	!	!
8BB/	8f#\	.	8a/	.	8dd\	.	.	.	.
!	!	!	!	!	!LO:SIC:s=8dd#	!	!	!	!
8BB/	8f#\	.	8a/	.	8dd\	.	.	.	.
!	!	!	!	!	!LO:SIC:s=8dd#	!	!	!	!
8BB/	8f#\	.	8a/	.	8dd\	.	8dd#X\	.	-ra
!	!	!	!	!	!LO:SIC:s=8dd#	!	!	!	!
8BB/	8f#\	.	8a/	.	8dd\	.	8b\	.	ei
!	!	!	!	!	!LO:SIC:s=8dd#	!	!	!	!
8BB/J	8f#\J	.	8a/J	.	8dd\J	.	8a\	-di-	tidi-
=30	=30	=30	=30	=30	=30	=30	=30	=30	=30
8E\L	8e\L	.	8g#/L	.	8ff#\L	.	8g#\	-cet	-ra-
8E\	8e\	.	8g#/	.	8b\	.	4b\	Ne-	.
8E\	8e\	.	8g#/	.	8b\	.	.	.	.
8E\	8e\	.	8g#/	.	8b\	.	4ee\	.	.
8E\	8e\	.	8g#/	.	8b\	.	.	.	.
8E\J	8e\J	.	8g#/J	.	8b\J	.	8b\	.	.
=31	=31	=31	=31	=31	=31	=31	=31	=31	=31
8E\L	8e\L	.	8a/L	.	8cc#\L	.	8cc#\	.	.
8E\	8e\	.	8a/	.	8cc#\	.	4ee\	.	.
8E\	8e\	.	8a/	.	8cc#\	.	.	.	.
8E\	8e\	.	8a/	.	8cc#\	.	4aa\	.	.
8E\	8e\	.	8a/	.	8cc#\	.	.	.	.
8E\J	8e\J	.	8a/J	.	8cc#\J	.	8cc#\	-mo	.
!	!LO:LB:g=original	!	!	!	!	!	!	!	!
=32	=32	=32	=32	=32	=32	=32	=32	=32	=32
8E\L	8e\L	.	8g#/L	.	8b/L	.	8b\	di-	.
8E\	8e\	.	8g#/	.	8b/	.	4ee\	.	.
8E\	8e\	.	8g#/	.	8b/	.	.	.	.
8E\	8e\	.	8g#/	.	8b/	.	4gg#\	.	.
8E\	8e\	.	8g#/	.	8b/	.	.	.	.
8E\J	8e\J	.	8g#/J	.	8b/J	.	8b\	.	.
=33	=33	=33	=33	=33	=33	=33	=33	=33	=33
8BB/L	8B/L	.	8f#/L	.	8a/L	.	8a\	.	.
8BB/	8B/	.	8f#/	.	8a/	.	4dd#X\	.	.
8BB/	8B/	.	8f#/	.	8a/	.	.	.	.
8BB/	8B/	.	8f#/	.	8a/	.	4ff#\	.	.
8BB/	8B/	.	8f#/	.	8a/	.	.	.	.
8BB/J	8B/J	.	8f#/J	.	8a/J	.	8a\	-gne	.
=34	=34	=34	=34	=34	=34	=34	=34	=34	=34
8E/L	8B/L	.	8e/L	.	8g#/L	.	8g#\	prae-	.
8E/	8B/	.	8e/	.	8g#/	.	4ee\	.	.
8C#/	8c#/	.	8e/	.	8g#/	.	.	.	.
8C#/	8c#/	.	8e/	.	8g#/	.	4ee\	.	.
8BB/	8B/	.	8e/	.	8g#/	.	.	.	.
!	!	!	!	!	!	!	!LO:LB:g=original	!	!
8BB/J	8B/J	.	8e/J	.	8g#/J	.	8ee\	.	.
!LO:LB:g=original	!	!	!	!	!	!	!	!	!
=35	=35	=35	=35	=35	=35	=35	=35	=35	=35
8AA#/L	8A#X/L	.	8e/L	.	8g#/L	.	8ee\	.	.
8AA#/	8A#/	.	8e/	.	8g#/	.	4gg#\	.	.
8AA#/	8A#/	.	8e/	.	8cc#/	.	.	.	.
8AA#/	8A#/	.	8f#/	.	8cc#/	.	4ff#\	.	.
8AA#/	8A#/	.	8f#/	.	8cc#/	.	.	.	.
8AA#/J	8A#/J	.	8f#/J	.	8ee/J	.	8ee\	.	.
=36	=36	=36	=36	=36	=36	=36	=36	=36	=36
.	.	.	.	.	8qqee/	.	8qqee/	.	.
8BB/L	8B/L	.	8f#/	.	4.dd#\	.	4.dd#X\	.	.
8BB/	8B/	.	4f#/	.	.	.	.	.	.
8BB/	8B/	.	.	.	.	.	.	.	.
8BB/	8B/	.	8a/L	.	8cc#\L	.	8cc#\L	.	.
8BB/	8B/	.	(<8g#/	.	(>8b\	.	8b\J	.	.
8BB/J	8B/J	.	8f#/J)	.	8a\J)	.	8a\	.	-al-
!	!	!	!	!	!LO:LB:g=original	!	!	!	!
=37	=37	=37	=37	=37	=37	=37	=37	=37	=37
!LO:TX:a:t=P:problem=mixed beam	!	!	!	!	!	!	!	!	!
8E\L	8B/L	.	8e/L	.	8g#/L	.	8g#/	.	-lo-
8AAn/	8c#/	.	8f#/	.	8a/	.	16f#/LL	.	-ra
.	.	.	.	.	.	.	16e/JJ	.	ei
8BB/	8B/	.	8e/	.	8g#/	.	4e/	.	ti
8BB/	8B/	.	8e/J	.	8g#/	.	.	.	.
!	!	!	!LO:LB:g=original	!	!	!	!	!	!
8BB/	8B/	.	8d#X/L	.	8f#/	.	4f#/	-di-	di-
8BB/J	8B/J	.	8d#/J	.	8f#/J	.	.	.	.
=38	=38	=38	=38	=38	=38	=38	=38	=38	=38
!	!	!	!LO:TX:a:t=P:problem=mixed beam	!LO:DY:a	!LO:TX:a:t=P:problem=mixed beam	!	!	!	!
!	!	!	!	!LO:HP:a:t=for:	!	!	!	!	!
8E\L	8e\L	.	8e/L	f	8e/L	.	2e/	-cet	-ra
8E\	8e\	.	8gg#\J	.	8bb\J	.	.	.	.
8E\	8e\	.	16r	.	16r	.	.	.	.
.	.	.	16g#/LL	.	16b\LL	.	.	.	.
8E\	8e\	.	16.a/	.	16.cc#\	.	.	.	.
.	.	.	32g#/JJk	.	32b\JJk	.	.	.	.
8E\	8e\	.	8b/L	.	8ee\L	.	4r	.	.
8E\J	8e\J	.	8g#/J	.	8b\J	.	.	.	.
=39	=39	=39	=39	=39	=39	=39	=39	=39	=39
!LO:TX:a:t=P:problem=mixed beam	!	!	!LO:TX:a:t=P:problem=mixed beam	!	!LO:TX:a:t=P:problem=mixed beam	!	!LO:N:vis=0	!	!
8B\L	8B/L	.	8f#/L	.	8a/L	.	1.r	.	.
8B\	8B/	.	8ff#\J	.	8aa\J	.	.	.	.
8B\	8B/	.	16r	.	16r	.	.	.	.
.	.	.	16f#/LL	.	16a/LL	.	.	.	.
8B\	8B/	.	16.g#/	.	16.b/	.	.	.	.
.	.	.	32f#/JJk	.	32a/JJk	.	.	.	.
!	!	!	!LO:TX:a:t=P:problem=mixed beam	!	!LO:TX:a:t=P:problem=mixed beam	!	!	!	!
8BB/	8B/	.	8dd#\L	.	8gg#\L	.	.	.	.
8BB/J	8B/J	.	8f#/J	.	8a/J	.	.	.	.
!	!LO:LB:g=original	!	!	!	!	!	!	!	!
=40	=40	=40	=40	=40	=40	=40	=40	=40	=40
.	.	.	8qqa/	.	8qqa/	.	.	.	.
8E/L	8B/L	.	8g#/L	.	8g#/L	.	.	.	.
8BB/	8c#/	.	16f#/L	.	16f#/L	.	.	.	.
.	.	.	16e/JJ	.	16e/JJ	.	.	.	.
8BB/	8B/	.	4e/	.	4e/	.	.	.	.
8BB/	8B/	.	.	.	.	.	.	.	.
8BB/	8A/	.	4d#/	.	4f#/	.	.	.	.
8BB/J	8A/J	.	.	.	.	.	.	.	.
=41	=41	=41	=41	=41	=41	=41	=41	=41	=41
!LO:TX:a:t=P:problem=mixed beam	!LO:TX:a:t=P:problem=mixed beam	!	!	!	!	!	!	!	!
8EE/L	8G#/L	.	8e/L	.	8e/L	.	4b\	Qvam	Cio
8E\	8E/	.	8g#/	.	8b/	.	.	.	.
8E\	8e\	.	8g#/	.	8b/	.	16a\LL	.	he
.	.	.	.	.	.	.	(>16g#\JJ	.	.
8E\	8e\	.	8a/	.	8b/	.	(<16f#/LL)	.	nel
.	.	.	.	.	.	.	16e/JJ)	.	.
8E\	8e\	.	8a/	.	8cc#/	.	8cc#\	Vis	pro-
8E\J	8e\J	.	8a/J	.	8cc#/J	.	8cc#\	.	-fon-
!	!	!	!	!	!	!	!LO:LB:g=original	!	!
=42	=42	=42	=42	=42	=42	=42	=42	=42	=42
8E\L	8e\L	.	8r	.	8r	.	4cc#t>\	sciam	.
8E\	8e\	.	8a/	.	8cc#\	.	.	.	.
8E\	8e\	.	16r	.	16r	.	4b\	.	-do
.	.	.	16g#/LL	.	16b\LL	.	.	.	.
8E\	8e\	.	16.a/	.	16.cc#\	.	.	.	.
.	.	.	32g#/JJk	.	32b\JJk	.	.	.	.
8E\	8e\	.	8b/L	.	8ee\L	.	4r	.	.
8E\J	8e\J	.	8g#/J	.	8b\J	.	.	.	.
=43	=43	=43	=43	=43	=43	=43	=43	=43	=43
!	!	!	!	!	!	!	!LO:TX:a:t=P:problem= dywiz jako przedłużenie sylaby	!	!
8E\L	8e\L	.	8r	.	8r	.	4b\	qvod-	chiu-
8E\	8e\	.	8g#/	.	8b\	.	.	.	.
8E\	8e\	.	8r	.	8r	.	16a\LL	.	-sa
.	.	.	.	.	.	.	16g#\JJ	.	.
8E\	8e\	.	8g#/	.	8b\L	.	16f#/LL	.	del
.	.	.	.	.	.	.	16e/JJ	.	.
8E\	8e\	.	8b\L	.	8dd\	.	8dd\	.	sen-
8E\J	8e\J	.	8b\J	.	8dd\J	.	8dd\	-Ma-	-na
!LO:LB:g=original	!	!	!LO:LB:g=original	!	!Lo:LB:g=original	!	!	!	!
=44	=44	=44	=44	=44	=44	=44	=44	=44	=44
8AA/L	8e\L	.	8r	.	8r	.	4dd\	-ri-	scon-
8AA/	8e\	.	8b\	.	8dd\	.	.	.	.
8AA/	8e\	.	16r	.	16r	.	4cc#\	-am	-do
.	.	.	16a\LL	.	16cc#\LL	.	.	.	.
8AA/	8e\	.	16.cc#\	.	16.ee\	.	.	.	.
.	.	.	32a\JJk	.	32cc#\JJk	.	.	.	.
8AA/	8e\	.	8cc#\L	.	8aa\L	.	4r	.	.
8AA/J	8e\J	.	8b\J	.	8cc#\J	.	.	.	.
=45	=45	=45	=45	=45	=45	=45	=45	=45	=45
!LO:TX:a:t=P:problem=mixed beam	!	!	!	!	!	!	!	!	!
8GGn/L	8gn\L	.	8r	.	8r	.	4ee\	Ne-	cioch-
8Gn\	8g\	.	8cc#\	.	8ee\	.	.	.	.
8G\	8g\	.	8r	.	8r	.	8ee\	-mo	-il
8G\	8g\	.	8cc#\L	.	8ee\L	.	8ee,\	.	mio
8G\	8g\	.	8cc#\	.	8ee\	.	8ee\L	dig-	la-
8G\J	8g\J	.	8cc#\J	.	8ee\J	.	8ee\J	-ne	-bro
=46	=46	=46	=46	=46	=46	=46	=46	=46	=46
8F#\L	8A#X/L	.	8r	.	8r	.	8ee\L	prae-	ta-
8F#\	8A#/	.	8cc#\	.	8ee\	.	8cc#\J	.	.
.	.	.	.	.	.	.	8qqb/	.	.
8F#\	8c#/	.	8r	.	8r	.	4.a#X\	.	-ce
8F#\	8c#/	.	8cc#\L	.	8ee\L	.	.	.	.
8F#\	8F#/	.	8cc#\	.	8ee\	.	.	.	.
8F#\J	8F#/J	.	8cc#\J	.	8ee\J	.	8ee\	.	al-
=47	=47	=47	=47	=47	=47	=47	=47	=47	=47
!LO:TX:a:t=P:problem=mixed beam	!	!	!	!	!	!	!	!	!
8B\L	8f#\L	.	8cc#\L	.	8ee\L	.	16ee\LL	.	-lo-
.	.	.	.	.	.	.	16cc#\JJ	.	.
8B\	8f#\	.	8b\	.	8dd\	.	4.dd\	.	-ra
8G#X\	8e\	.	8b\	.	8dd\	.	.	.	.
8G#\	8e\	.	8b\	.	8dd\	.	.	.	.
!	!	!	!	!	!	!	!LO:LB:g=original	!	!
8A\	8e\	.	8b\	.	8dd\	.	16dd\	.	ci
!	!	!	!	!	!	!	!LO:N:vis=8	!	!
.	.	.	.	.	.	.	16dd\	.	ti
8AA/J	8e\J	.	8a\J	.	8cc#\J	.	8cc#\	-di-	di-
!	!LO:LB:g=original	!	!	!	!	!	!	!	!
=48	=48	=48	=48	=48	=48	=48	=48	=48	=48
8E\L	8e\L	.	8a/L	.	8cc#\L	.	4cc#\	.	.
8E\	8e\	.	8a/J	.	8cc#\J	.	.	.	.
8E\	8e\	.	8r	.	8r	.	4b\	-cet	-ra
8E\	8e\	.	8g#/	.	8b\	.	.	.	.
8D\	8d\	.	16r	.	16r	.	4r	.	.
.	.	.	16g#/LL	.	16b\LL	.	.	.	.
8D\J	8d\J	.	16.a/	.	16.cc#\	.	.	.	.
.	.	.	32b/JJk	.	32dd\JJk	.	.	.	.
=49	=49	=49	=49	=49	=49	=49	=49	=49	=49
8C#/L	8c#\L	.	8cc#\L	.	8ee\L	.	4ee\	Ne-	cioch-
8C#/	8c#\	.	8a\J	.	8ee\J	.	.	.	.
8C#/	8c#\	.	8r	.	8r	.	16dd\LL	.	-il
.	.	.	.	.	.	.	16cc#\JJ	.	.
8C#/	8c#\	.	8a/L	.	8ee\	.	16b\LL	.	mio
.	.	.	.	.	.	.	16a\JJ	.	.
8C#/	8c#\	.	8r	.	8r	.	8gn\	.	la-
8C#/J	8c#\J	.	8gn/J	.	8ee\	.	8g\	-mo	-bro
=50	=50	=50	=50	=50	=50	=50	=50	=50	=50
!	!	!	!	!	!	!	!LO:SIC:s=4gn	!	!
8D/L	8d\L	.	8r	.	8r	.	4g#/	dig-	ta-
!	!	!	!LO:SIC:s=8gn	!	!	!	!	!	!
8D/	8d\	.	8g#/	.	8a/	.	.	.	.
!	!	!	!	!	!LO:LB:g=original	!	!	!	!
8D/	8d\	.	8r	.	8r	.	4f#/	-ne	-ce
8D/	8d\	.	8f#/L	.	8a/L	.	.	.	.
8D/	8d\	.	8f#/	.	8a/	.	8r	.	.
8D/J	8d\J	.	8f#/J	.	8a/J	.	8ff#\	Ne-	al-
!	!	!	!LO:LB:g=original	!	!	!	!	!	!
=51	=51	=51	=51	=51	=51	=51	=51	=51	=51
8D#/L	8d#X\L	.	8r	.	8r	.	4.ff#\	.	-lo-
8D#/	8d#\	.	8a/L	.	8ff#\L	.	.	.	.
8D#/	8d#\	.	8r	.	8ra	.	.	.	.
8D#/	8d#\	.	8b/J	.	8ff#\	.	16ee\LL	.	-ra
.	.	.	.	.	.	.	16dd#X\JJ	.	.
8D#/	8d#\	.	8r	.	8ra	.	16cc#\LL	.	ci
.	.	.	.	.	.	.	16b\JJ	.	ti
8D#/J	8d#\J	.	8a/	.	8ff#\J	.	8a\	-mo	di-
=52	=52	=52	=52	=52	=52	=52	=52	=52	=52
.	.	.	.	.	.	.	8qqa/	.	.
8E\L	8e\L	.	8r	.	8r	.	4.g#X\	prae-	-ra-
8E\	8e\	.	4g#X/	.	4b\	.	.	.	.
8E\	8e\	.	.	.	.	.	.	.	.
!	!	!	!	!	!	!	!LO:LB:g=original	!	!
8E\	8e\	.	8a/L	.	8ff#\L	.	8ff#\L	.	.
8E\	8e\	.	8g#/	.	8ee\	.	8ee\	.	.
8E\J	8e\J	.	8f#/J	.	8dd#\J	.	8dd#X\J	.	.
.	.	.	.	.	8qqdd#/	.	.	.	.
!LO:LB:g=original	!	!	!	!	!	!	!	!	!
=53	=53	=53	=53	=53	=53	=53	=53	=53	=53
!	!	!	!	!	!	!	!LO:SIC:s=8qqdd#	!	!
.	.	.	8qqf#/	.	.	.	8qqdd/	.	.
8E\L	8e\L	.	4.g#/	.	4.ee\	.	4.ee\	.	.
8E\	8e\	.	.	.	.	.	.	.	.
8E\	8e\	.	.	.	.	.	.	.	.
8E\	8e\	.	8a/L	.	8ff#\L	.	16aa\LL	.	.
.	.	.	.	.	.	.	16ff#\J	.	.
8E\	8e\	.	8g#/	.	8ee\	.	8ee\	.	.
8E\J	8e\J	.	8f#/J	.	8dd\J	.	8dd#X\J	.	.
=54	=54	=54	=54	=54	=54	=54	=54	=54	=54
8E\L	8e\L	.	8g#/L	.	8ee\L	.	8ee\L	.	.
8E\	8e\	.	8a/	.	8ff#\J	.	8ff#\J	.	.
.	.	.	.	.	8qqee/	.	8qqee/	.	.
*	*	*	*	*	*2\right	*	*	*	*
8E\	8e\	.	8b/	.	2ddnX\	.	4.ddnX\	.	.
8E\	8e\	.	8b/	.	.	.	.	.	.
8E\	8e\	.	8g#/	.	.	.	.	.	.
8E\J	8e\J	.	8g#/J	.	.	.	16cc#\LL	.	.
.	.	.	.	.	.	.	16b\JJ	.	.
=55	=55	=55	=55	=55	=55	=55	=55	=55	=55
8E\L	8e\L	.	8a/L	.	8cc#\L	.	8cc#\	.	.
8E\	8e\	.	8a/	.	8cc#\	.	4ee\	.	.
8E\	8e\	.	8a/	.	8cc#\	.	.	.	.
8E\	8e\	.	8a/	.	8cc#\	.	4aa\	.	.
8E\	8e\	.	8a/	.	8cc#\	.	.	.	.
8E\J	8e\J	.	8a/J	.	8cc#\J	.	8cc#\	.	.
=56	=56	=56	=56	=56	=56	=56	=56	=56	=56
8E\L	8e\L	.	8g#/	.	8b\	.	8b\	.	.
8E\	8e\	.	4b/	.	4dd\	.	4dd\	.	.
8E\	8e\	.	.	.	.	.	.	.	.
8E\	8e\	.	4a/	.	4cc#\	.	4cc#\	.	.
!	!LO:LB:g=original	!	!	!	!	!	!	!	!
8E\	8e\	.	.	.	.	.	.	.	.
8E\J	8e\J	.	8g#/	.	8b\	.	8b\	.	-allo-
=57	=57	=57	=57	=57	=57	=57	=57	=57	=57
8C#/L	8c#\L	.	8a/L	.	8ee\L	.	8ee\	.	-ra
8D/	8d\	.	8a/	.	8ff#\	.	8ff#\	.	ei
8E/	8e\	.	8a/	.	8cc#\	.	4a\	.	ti
8E/	8e\	.	8a/	.	8cc#\	.	.	.	.
8E/	8e\	.	8g#/	.	8b\	.	4b\	-di-	di-
8E/J	8e\J	.	8g#/J	.	8b\J	.	.	.	.
!	!	!	!	!	!LO:LB:g=original	!	!LO:LB:g=original	!	!
=58	=58	=58	=58	=58	=58	=58	=58	=58	=58
*	*	*	*	*	*	*	*2\right	*	*
!	!	!LO:DY:a	!	!LO:DY:a	!	!	!	!	!
!	!	!	!	!LO:HP:a:t=fo:	!	!	!	!	!
8AA/L	8A/L	f	8a\L	f	8a\L	.	2a\	-cet	-ra
8AA/	8A/	.	8cc#\J	.	8ee\J	.	.	.	.
8AA/	8A/	.	16r	.	16r	.	.	.	.
.	.	.	16cc#\LL	.	16ee\LL	.	.	.	.
8AA/	8A/	.	16.dd\	.	16.ff#\	.	.	.	.
.	.	.	32cc#\JJk	.	32ee\JJk	.	.	.	.
8AA/	8A/	.	8ee\L	.	8aa\L	.	4r	.	.
8AA/J	8A/J	.	8cc#\J	.	8ee\J	.	.	.	.
!	!	!	!LO:LB:g=original	!	!	!	!	!	!
=59	=59	=59	=59	=59	=59	=59	=59	=59	=59
8E\L	8e\L	.	8r	.	8r	.	4dd\	qvod	cioch
8E\	8e\	.	8b\	.	8dd\	.	.	.	.
8E\	8e\	.	16r	.	16r	.	8dd\	.	il
.	.	.	16b\LL	.	16dd\LL	.	.	.	.
8E\	8e\	.	16.cc#\	.	16.ee\	.	8dd,\	.	mio
.	.	.	32b\JJk	.	32dd\JJk	.	.	.	.
8E\	8e\	.	8gg#\L	.	8bb\L	.	8dd\	Ma-	la-
8E\J	8e\J	.	8b\J	.	8dd\J	.	8dd\	.	-bro
=60	=60	=60	=60	=60	=60	=60	=60	=60	=60
8A\L	8e\L	.	8r	.	8r	.	4dd\	-ri-	ta-
8A\	8e\	.	8a/	.	8cc#\	.	.	.	.
8A\	8e\	.	16r	.	16r	.	4cc#\	-am	-ce
.	.	.	16a/LL	.	16cc#\LL	.	.	.	.
8A\	8e\	.	16.b/	.	16.dd\	.	.	.	.
.	.	.	32a/JJk	.	32cc#\JJk	.	.	.	.
8D\	8d\	.	8a/L	.	8ff#\L	.	8r	.	.
8D\J	8d\J	.	8a/J	.	8a\J	.	8ff#\	Ma-	al-
=61	=61	=61	=61	=61	=61	=61	=61	=61	=61
8C#/L	8c#\L	.	8a/L	.	8ee\L	.	16ee\LL	.	-lo-
.	.	.	.	.	.	.	16cc#\JJ	.	.
8D/	8d\	.	8b/	.	8dd\	.	16b\LL	.	-ra
.	.	.	.	.	.	.	16a\JJ	.	.
8E/	8e\	.	8a/	.	8cc#\	.	4e/	.	ei
8E/	8e\	.	8a/	.	8cc#\	.	.	.	.
8E/	8e\	.	8g#/	.	8b\	.	4bT>\	-ri-	tidi-
8E/J	8e\J	.	8g#/J	.	8b\J	.	.	.	.
!LO:LB:g=original	!	!	!	!	!	!	!	!	!
=62	=62	=62	=62	=62	=62	=62	=62	=62	=62
!	!	!	!	!LO:HP:a:i:t=pi:	!	!	!	!	!
!	!	!	!	!LO:DY:a	!	!	!	!	!
8A\L	8A/L	.	8a\L	p	8a\L	.	4a\	-am	-ra
8A\	8A/	.	8cc#\J	.	8ee\J	.	.	.	.
8A\	8A/	.	16r	.	16r	.	4r	.	.
.	.	.	16cc#\LL	.	16ee\LL	.	.	.	.
8A\	8A/	.	16.dd\	.	16.ff#\	.	.	.	.
.	.	.	32cc#\JJk	.	32ee\JJk	.	.	.	.
8A\	8A/	.	8ee\L	.	8aa\L	.	8r	.	.
8A\J	8A/J	.	8cc#\J	.	8ee\J	.	8ee\	Ma-	al-
=63	=63	=63	=63	=63	=63	=63	=63	=63	=63
8E\L	8e\L	.	8r	.	8r	.	8ee\	-ri-	-lo-
8E\	8e\	.	8b\	.	8dd\	.	4dd\	-am	-ra
8E\	8e\	.	16r	.	16r	.	.	.	.
.	.	.	16b\LL	.	16dd\LL	.	.	.	.
8E\	8e\	.	16.cc#\	.	16.ee\	.	4r	.	.
.	.	.	32b\JJk	.	32dd\JJk	.	.	.	.
!	!	!	!LO:TX:a:t=P:problem=mixed beam	!	!	!	!	!	!
8E\	8e\	.	8dd\L	.	8bb\L	.	.	.	.
8E\J	8e\J	.	8g#/J	.	8dd\J	.	8dd\	prae-	al-
!	!	!	!	!	!LO:LB:g=original	!	!LO:LB:g=original	!	!
=64	=64	=64	=64	=64	=64	=64	=64	=64	=64
8AA/L	8e\L	.	8a/L	.	8cc#\L	.	8cc#\	.	-lo-
8D/J	8f#\J	.	8a/J	.	8ee\J	.	16b\LL	.	-ra
.	.	.	.	.	.	.	16a\JJ	.	ei
*2\right	*2\right	*	*	*	*	*	*	*	*
!LO:TX:b:t=e.	!	!	!	!	!	!	!	!	!
2E;>\	2e;>\	.	4a;</	.	4cc#;>\	.	4a\	.	ti
.	.	.	4r	.	4r	.	4bT>\	-di-	di-
!	!LO:LB:g=original	!	!LO:LB:g=original	!	!	!	!	!	!
=65	=65	=65	=65	=65	=65	=65	=65	=65	=65
!	!	!LO:HP:a:t:t=for.	!	!	!	!LO:HP:a:i:t=for	!	!	!
!	!	!LO:DY:a	!	!	!	!LO:DY:a	!	!	!
8A\L	8a\L	f	8a\L	.	8a\L	f	2a\	-cet	-ra
8A\	8a\	.	8cc#\J	.	8ee\J	.	.	.	.
8A\	8a\	.	16r	.	16r	.	.	.	.
.	.	.	16cc#\LL	.	16ee\LL	.	.	.	.
8A\	8a\	.	16.dd\	.	16.ff#\	.	.	.	.
.	.	.	32cc#\JJk	.	32ee\JJk	.	.	.	.
8A\	8a\	.	8ee\L	.	8aa\L	.	4r	.	.
8A\J	8a\J	.	8cc#\J	.	8ee\J	.	.	.	.
=66	=66	=66	=66	=66	=66	=66	=66	=66	=66
!	!	!	!	!	!	!	!LO:N:vis=00	!	!
8E\L	8e\L	.	8r	.	8r	.	0.r	.	.
8E\	8e\	.	8b\	.	8dd\	.	.	.	.
8E\	8e\	.	16r	.	16r	.	.	.	.
.	.	.	16b\LL	.	16dd\LL	.	.	.	.
8E\	8e\	.	16.cc#\	.	16.ee\	.	.	.	.
.	.	.	32b\JJk	.	32dd\JJk	.	.	.	.
8E\	8e\	.	8dd\L	.	8bb\L	.	.	.	.
8E\J	8e\J	.	8b\J	.	8dd\J	.	.	.	.
=67	=67	=67	=67	=67	=67	=67	=67	=67	=67
!LO:TX:a:t=P:problem= pomiędzy taktami 66 i 67 zamazany takt	!	!	!	!	!	!	!	!	!
8AA/L	8e\L	.	8r	.	8r	.	.	.	.
8AA/	8e\	.	8a/	.	8cc#\	.	.	.	.
8AA/	8e\	.	16r	.	16r	.	.	.	.
.	.	.	16a/LL	.	16cc#\LL	.	.	.	.
8AA/	8e\	.	16.b/	.	16.dd\	.	.	.	.
.	.	.	32a/JJk	.	32cc#\JJk	.	.	.	.
8D/	8d\	.	8a/L	.	8ff#\L	.	.	.	.
8D#/J	8c#\J	.	8a/J	.	8a\J	.	.	.	.
=68	=68	=68	=68	=68	=68	=68	=68	=68	=68
.	8qqc#/	.	8qqa/	.	8qqa/	.	.	.	.
8E\L	4.B/	.	4.g#/	.	4.g#/	.	.	.	.
8B\	.	.	.	.	.	.	.	.	.
8E\	.	.	.	.	.	.	.	.	.
8DnX\	8g#\L	.	8bb\L	.	8bb\L	.	.	.	.
8C#\	8a\	.	8ee\	.	8ee\	.	.	.	.
8BB\J	8b\J	.	8dd\J	.	8dd\J	.	.	.	.
=69	=69	=69	=69	=69	=69	=69	=69	=69	=69
8AA/L	8e\L	.	8cc#\L	.	8cc#\L	.	.	.	.
8D/J	8f#\J	.	16.b\L	.	16.b\L	.	.	.	.
.	.	.	32cc#\JJk	.	32cc#\JJk	.	.	.	.
.	.	.	8qqa/	.	8qqa/	.	.	.	.
4E\	4e\	.	2g#/	.	2g#/	.	.	.	.
4EE/	4d\	.	.	.	.	.	.	.	.
!LO:LB:g=original	!	!	!	!	!	!	!	!	!
=70	=70	=70	=70	=70	=70	=70	=70	=70	=70
!LO:TX:a:i:t=finis	!	!	!LO:TX:a:t=P:problem= fermata bez kropki	!	!LO:TX:a:t=P:problem= fermata góra/dół	!	!LO:TX:b:i:t=Finis	!	!
!	!	!	!	!	!	!	!LO:TX:a:t=P:problem=fermata góra/dół	!	!
4AA;</	4c#;>\	.	4a;>/	.	4a;;/	.	4r;>	.	.
4C#/	4c#\	.	4r	.	4r	.	4ee\	Ta-	Sil-
!	!	!	!	!	!LO:TX:a:i:t=fins	!	!	!	!
4D/	4d\	.	4r	.	4r	.	16dd\LL	.	-le
.	.	.	.	.	.	.	16cc#\JJ	.	.
.	.	.	.	.	.	.	16b\LL	-men	di-
.	.	.	.	.	.	.	16a\JJ	.	.
!	!	!	!	!	!LO:LB:g=original	!	!	!	!
=71||	=71||	=71||	=71||	=71||	=71||	=71||	=71||	=71||	=71||
.	.	.	.	.	.	.	8qqa/	.	.
8E\L	8e\L	.	8r	.	8r	.	2g#\	Va-	-ra
8E\	8e\	.	8b/L	.	8ee\L	.	.	.	.
8E\	8e\	.	8b/	.	8ee\	.	.	.	.
8E\	8e\	.	8b/	.	8ee\	.	.	.	.
8E\	8e\	.	8g#/	.	8ee\	.	8b\L	-nus,	ne
8E\J	8e\J	.	8g#/J	.	8ee\J	.	8ee,\J	.	fia
!	!	!	!LO:LB:g=original	!	!	!	!	!	!
=72	=72	=72	=72	=72	=72	=72	=72	=72	=72
!	!	!	!	!	!	!	!LO:TX:a:t=P:problem= dywiz jako przedłużenie sylaby	!	!
8F#\L	8f#\L	.	8a/L	.	8ee\L	.	16ee\LL	et-	so-
.	.	.	.	.	.	.	16cc#\JJ	.	.
8F#\	8f#\	.	8a/	.	8dd\	.	4dd\	.	-la
8F#\	8f#\	.	8a/	.	8dd\	.	.	.	.
8F#\	8f#\	.	8a/	.	8dd\	.	8dd\	.	mor-
!LO:TX:b:t=g	!	!	!	!	!	!	!	!	!
8G#\	8e\	.	8b/	.	8dd\	.	[>8dd\	-in-	-te
!LO:TX:b:t=g	!	!	!	!	!	!	!	!	!
8G#\J	8e\J	.	8b/J	.	8dd\J	.	8dd\]	.	.
!	!	!	!	!	!	!	!LO:LB:g=original	!	!
=73	=73	=73	=73	=73	=73	=73	=73	=73	=73
8A\L	8e\L	.	8b/L	.	8dd\	.	8dd\	-sa-	mi-
8A\	8e\	.	8a/	.	4cc#\	.	4.cc#\	-nus	-a
8A\	8a\	.	8cc#/	.	.	.	.	.	.
8A\	8a\J	.	8cc#/	.	4ff#\	.	.	.	.
!	!LO:LB:g=original	!	!	!	!	!	!	!	!
8G#\	8g#\L	.	8b/	.	.	.	4r	.	.
8G#\J	8g#\J	.	8b/J	.	8ee#\	.	.	.	.
=74	=74	=74	=74	=74	=74	=74	=74	=74	=74
8F#\L	8f#\L	.	8a\L	.	8ff#\L	.	4aa,\	Est,	se-
8F#\	8f#\	.	8cc#\	.	8ff#\	.	.	.	.
8F#\	8f#\	.	8cc#\	.	8aa\	.	(>8ff#\	qvi	-gna
8F#\	8f#\	.	8cc#\	.	8aa\	.	8ee\)	.	di
8F#\	8f#\	.	8dd#\	.	8aa\	.	8dd#X\	il-	tu-
8F#\J	8f#\J	.	8cc#\J	.	8aa\J	.	8cc#\	-lam	-a
=75	=75	=75	=75	=75	=75	=75	=75	=75	=75
8G#\L	8g#\L	.	8b#\	.	8gg#\	.	8b#X\	re-	pie-
8G#\	8g#\	.	4dd#\	.	4ff#\	.	4ff#\	.	-ta-
8G#\	8g#\	.	.	.	.	.	.	.	.
8G#\	8g#\	.	4cc#\	.	4ee\	.	4ee\	.	.
8G#\	8g#\	.	.	.	.	.	.	.	.
8G#\J	8g#\J	.	8b#X\	.	8dd#\	.	8dd#X\	.	.
=76	=76	=76	=76	=76	=76	=76	=76	=76	=76
8G#\L	8g#\L	.	8cc#\L	.	8ee\L	.	8ee\	.	.
8G#\	8g#\	.	8cc#\	.	8ee\	.	4gg#\	.	.
8G#\	8g#\	.	8cc#\	.	8ee\	.	.	.	.
8G#\	8g#\	.	8cc#\	.	8ee\	.	16ff#\LL	.	.
.	.	.	.	.	.	.	16ee\JJ	.	.
8G#\	8g#\	.	8dd#\	.	8ff#\	.	8dd#X\L	.	.
8G#\J	8g#\J	.	8cc#\J	.	8ee\J	.	8cc#\J	-ti-	.
=77	=77	=77	=77	=77	=77	=77	=77	=77	=77
8G#\L	8g#\L	.	8r	.	8r	.	2g#\	-cet	.
8G#\	8g#\	.	8b\	.	8dd#\	.	.	.	.
8G#\	8g#\	.	16r	.	16r	.	.	.	.
.	.	.	16b\LL	.	16dd#\LL	.	.	.	.
8G#\	8g#\	.	16.cc#\	.	16.ee\	.	.	.	.
.	.	.	32b\JJk	.	32dd#\JJk	.	.	.	.
8G#\	8g#\	.	8dd#\L	.	8gg#\L	.	4r	.	.
8G#\J	8g#\J	.	8b\J	.	8dd#X\J	.	.	.	.
=78	=78	=78	=78	=78	=78	=78	=78	=78	=78
8F#\L	8f#\L	.	8r	.	8r	.	4dd#X\	est	-de-
8F#\	8f#\	.	8b\	.	8dd#X\	.	.	.	.
8F#\	8f#\	.	16r	.	16r	.	8dd#\	qvi-	-gna
!	!	!	!	!	!LO:LB:g=original	!	!	!	!
.	.	.	16b\LL	.	16dd#\LL	.	.	.	.
!	!	!	!	!	!	!	!LO:TX:a:t=P:problem= dywiz jako przedłużenie sylaby	!	!
!	!	!	!	!	!	!	!LO:LB:g=original	!	!
8F#\	8f#\	.	16.cc#\	.	16.ee\	.	8dd#\	.	di
.	.	.	32b\JJk	.	32dd#X\JJk	.	.	.	.
!	!	!	!	!	!LO:TX:a:t=P:problem=mixed beam	!	!	!	!
8F#\	8f#\	.	8dd#\L	.	8gg#\L	.	8dd#\	-il-	su-
8F#\J	8f#\J	.	8b#\J	.	8g#/J	.	8dd#\	-lam	-a
!LO:LB:g=original	!	!	!LO:LB:g=original	!	!	!	!	!	!
=79	=79	=79	=79	=79	=79	=79	=79	=79	=79
8E\L	8e\L	.	4cc#\	.	4g#/	.	4gg#\	re-	pie-
8E\	8e\	.	.	.	.	.	.	.	.
8D#\	8d#X\	.	4dd#\	.	4b#/	.	4ff#\	.	-ta-
8D#\	8d#\	.	.	.	.	.	.	.	.
!	!	!	!	!	!	!	!LO:TX:a:t=P:problem= dywiz jako przedłużenie sylaby	!	!
8C#\	8c#\	.	4ee\	.	4cc#/	.	4ee\	.	.
8C#\J	8c#\J	.	.	.	.	.	.	.	.
=80	=80	=80	=80	=80	=80	=80	=80	=80	=80
8F#\L	8f#\L	.	8f#/L	.	8f#/L	.	8ee\	.	di
8F#X\J	8f#X\J	.	8f#X/J	.	8f#X/J	.	16dd#X\LL	.	su-
.	.	.	.	.	.	.	16cc#\JJ	.	.
!	!	!	!	!	!LO:TX:a:t=P:problem= fermata góra/dół	!	!	!	!
2G#;>\	2g#;>\	.	2g#;>/	.	2g#;;/	.	4cc#;>\	.	-a
.	.	.	.	.	.	.	4dd#X\	-di-	pie-
=81	=81	=81	=81	=81	=81	=81	=81	=81	=81
8c#\L	8g#\L	.	8cc#\L	.	8cc#\L	.	2cc#\	-cet.	-ta.
8c#\	8g#\	.	8ee\J	.	8ee\J	.	.	.	.
8c#\	8g#\	.	16r	.	16r	.	.	.	.
.	.	.	16ee\LL	.	16ee\LL	.	.	.	.
8c#\	8g#\	.	16.ff#\	.	16.ff#\	.	.	.	.
.	.	.	32ee\JJk	.	32ee\JJk	.	.	.	.
8c#\	8a\	.	8aa\L	.	8aa\L	.	4r	.	.
8c#\J	8a\J	.	8ee\J	.	8ee\J	.	.	.	.
!	!LO:LB:g=original	!	!	!	!	!	!	!	!
=82	=82	=82	=82	=82	=82	=82	=82	=82	=82
!	!	!	!	!	!	!	!LO:N:vis=00	!	!
8G#\L	8b\L	.	8r	.	8r	.	0.r	.	.
8G#\	8e\	.	8bnX\	.	8ddnX\	.	.	.	.
8G#\	8e\	.	16r	.	16r	.	.	.	.
.	.	.	16b\LL	.	16dd\LL	.	.	.	.
8G#\	8e\	.	16.cc#\	.	16.ee\	.	.	.	.
.	.	.	32b\JJk	.	32dd\JJk	.	.	.	.
8G#\	8e\	.	8dd\L	.	8bb\L	.	.	.	.
8G#\J	8e\J	.	8b\J	.	8dd\J	.	.	.	.
=83	=83	=83	=83	=83	=83	=83	=83	=83	=83
8A\L	8e\L	.	8cc#\L	.	8cc#\L	.	.	.	.
8D\	8f#\J	.	16.b\L	.	16.b\L	.	.	.	.
.	.	.	32cc#\JJk	.	32cc#\JJk	.	.	.	.
.	8qqc#/	.	8qqa/	.	8qqa/	.	.	.	.
8E\	2B/	.	2g#/	.	2g#/	.	.	.	.
8E\	.	.	.	.	.	.	.	.	.
8E\	.	.	.	.	.	.	.	.	.
8E\J	.	.	.	.	.	.	.	.	.
=84	=84	=84	=84	=84	=84	=84	=84	=84	=84
!	!	!	!	!	!LO:TX:a:t=P:problem=mixed beam	!	!	!	!
8A\L	8c#/L	.	8b\L	.	8a/L	.	.	.	.
8A\	8A/	.	8cc#\J	.	8ee\J	.	.	.	.
8A\	8A/	.	16r	.	16r	.	.	.	.
.	.	.	16cc#\LL	.	16ee\LL	.	.	.	.
8A\	8A/	.	16.dd\	.	16.ff#\	.	.	.	.
.	.	.	32cc#\JJk	.	32ee\JJk	.	.	.	.
8A\	8A/	.	8ee\L	.	8aa\L	.	.	.	.
8A\J	8A/J	.	8cc#\J	.	8ee\J	.	.	.	.
!	!	!	!	!	!LO:LB:g=original	!	!	!	!
=85	=85	=85	=85	=85	=85	=85	=85	=85	=85
8E\L	8e\L	.	8r	.	8r	.	.	.	.
8E\	8e\	.	8b\	.	8dd\	.	.	.	.
8E\	8e\	.	16r	.	16r	.	.	.	.
.	.	.	16b\LL	.	16dd\LL	.	.	.	.
8E\	8e\	.	16.cc#\	.	16.ee\	.	.	.	.
.	.	.	32b\JJk	.	32dd\JJk	.	.	.	.
!	!	!	!LO:TX:a:t=P:problem=mixed beam	!	!	!	!	!	!
!	!	!	!LO:LB:g=original	!	!	!	!	!	!
8E\	8e\	.	8dd\L	.	8bb\L	.	.	.	.
8E\J	8e\J	.	8g#/J	.	8dd\J	.	.	.	.
=86	=86	=86	=86	=86	=86	=86	=86	=86	=86
!	!	!	!	!	!	!	!LO:N:vis=0	!	!
8A\L	8e\L	.	4a/	.	8cc#\L	.	1.r	.	.
8D\J	8d\J	.	.	.	8ff#\J	.	.	.	.
4E\	4c#\	.	4e/	.	4e/	.	.	.	.
4EE/	4d\	.	4g#/	.	4g#/	.	.	.	.
=87	=87	=87	=87	=87	=87	=87	=87	=87	=87
2AA/	2c#\	.	4a/	.	4a/	.	.	.	.
.	.	.	2A/	.	2A/	.	.	.	.
4r	4r	.	.	.	.	.	.	.	.
!LO:TX:b:t=P:problem=komentarz na pustej pięciolinii pod ostatnim systemem	!LO:TX:a:t=P:problem=komentarz na pięciolinii za końcową kreską taktową	!	!LO:TX:a:i:t=Dal Segno	!	!LO:TX:a:i:t=Da Segno	!	!LO:TX:a:i:t=Dal Segno	!	!
!LO:TX:b:t=P:problem=segno oznaczone nietypowym znakiem graficznym	!LO:TX:a:t=P:problem=segno oznaczone nietypowym znakiem graficznym	!	!LO:TX:a:t=P:problem=komentarz na pięciolinii za końcową kreską taktową	!	!LO:TX:a:t=P:problem=komentarz na pięciolinii za końcową kreską taktową	!	!LO:TX:a:t=P:problem=komentarz na pięciolinii za końcową kreską taktową	!	!
!LO:TX:a:t=P:problem=utwór kończy się kreską z obustronną repetycję	!LO:TX:a:t=Dol Segna	!	!LO:TX:a:t=P:problem=segno oznaczone nietypowym znakiem graficznym	!	!LO:TX:a:t=P:problem=segno oznaczone nietypowym znakiem graficznym	!	!LO:TX:a:t=P:problem=segno oznaczone nietypowym znakiem graficznym	!	!
!LO:TX:b:t=Da Capo al Segno	!	!	!	!	!	!	!	!	!
==	==	==	==	==	==	==	==	==	==
*-	*-	*-	*-	*-	*-	*-	*-	*-	*-
!!!system-decoration: [(s1)][(s2,s3,s4)][(s5)]
!!!RDF**kern: > = above
!!!RDF**kern: < = below
!!!EED: Mateusz Mrugas
!!!EEV: 2020-12-09
!!!ENC: Marta Chmielewska
!!!END: 2020-06-01
